public/companies/banklessDAO-logo.svg

<svg viewBox="0 0 23223 5556" xmlns="http://www.w3.org/2000/svg" xml:space="preserve" style="fill-rule:evenodd;clip-rule:evenodd;stroke-linejoin:round;stroke-miterlimit:2"><g fill="#fff"><path d="m2759.26 702.508 1198.36-1.027v98.056H2759.26z" style="fill:#ed1c24" transform="scale(5.55556)"/><path d="M17208.125 2368.063q0 426.8-118 686.273c-78.611 172.978-197.223 298.8-355.778 377.472-158.39 78.55-381.278 117.8-668.556 117.745h-721.723V1186.829h714.667c279.278 0 501.334 40.422 666.056 121.266q247.167 121.267 365.167 378.162 118.167 256.889 118.167 681.806m-497.667-3.356c0-206.266-20.111-359.05-60.278-458.344a384.78 384.78 0 0 0-206.056-214.262q-145.417-64.889-430.5-64.805h-185.556v1481.612h184.667c190.334 0 333.723-21.883 430.111-65.661 96.334-43.772 165.056-116.911 206-219.417 41.112-102.333 61.667-255.372 61.612-459.123m771.445 1184.585 783.556-2362.463h627.612l785 2362.463h-494.445l-157.277-479.656h-911.668l-153.667 479.656zm769.5-901.223h637.945l-318.166-976.423zm3735.392-280.006c0 410.817-86.889 718.645-260.778 923.479s-426.667 307.255-758.39 307.255q-525.25 0-772.166-323.411c-164.667-215.611-247-518.05-247.112-907.323 0-391.4 82.334-694.384 247.112-908.962q247.083-321.867 772.167-322.033c352.222 0 610.167 107.255 773.778 321.778 163.667 214.516 245.445 517.589 245.39 909.217m-497.668 0q0-419.934-118.833-611.934c-79.167-128-213.445-192-402.667-192-189.445 0-323.723 64-402.778 192q-118.667 192-118.834 611.934c0 280.006 40.167 484.012 120.556 612.017 80.333 128 214.056 192 401.056 192 189.389 0 323.667-64 402.667-192q118.583-192.011 118.833-612.017"/><path d="M529.534 488.5q0 61.953-42.593 90.695-42.593 28.743-118.247 28.743H213.811V195.712h145.65q79.229 0 113.481 23.083 34.253 23.083 34.253 73.123 0 38.422-18.616 62.251-18.615 23.827-58.23 31.87 51.827 7.148 75.506 32.763 23.679 25.616 23.679 69.698M422.307 310.384q0-23.53-17.275-32.614-17.275-9.085-53.613-9.085h-53.614v88.462h51.231q37.232 0 55.251-10.425 18.02-10.424 18.02-36.338m21.446 170.669q0-27.7-18.765-39.167t-70.293-11.467h-56.89v103.056h42.593q49.146 0 67.761-4.765 18.617-4.767 27.105-16.084 8.489-11.319 8.489-31.573m339.55 126.885v-32.466q-45.57 41.7-97.695 41.699-51.826 0-78.335-27.253-26.509-27.254-26.509-69.846 0-33.36 13.553-55.103 13.551-21.743 40.21-34.104 26.657-12.36 76.696-17.424l65.826-6.255v-13.999q0-26.211-15.787-35.891-15.786-9.68-46.167-9.68-25.019 0-43.039 8.34t-26.658 23.828l-59.868-38.423q15.786-26.51 49.443-40.657 33.658-14.148 81.314-14.148 72.974 0 105.29 25.467 32.317 25.465 32.317 83.547v212.368zm-6.254-145.054-39.019 3.575q-41.401 3.573-59.719 15.786t-18.318 36.635q0 21.446 11.914 29.339t31.572 7.893q14 0 34.104-8.787 20.106-8.786 39.466-24.87zm362.481 145.054V435.78c0-32.565-2.92-54.308-8.78-65.23q-8.79-16.381-33.21-16.381c-22.84 0-50.34 15.091-82.51 45.273v208.496h-76.844V295.492h76.844V336c16.28-16.283 33.66-28.594 52.13-36.934 18.46-8.34 36.53-12.51 54.2-12.51q47.955 0 71.49 26.211c15.69 17.474 23.53 46.366 23.53 86.675v208.496zm351.47 0-83.4-129.267-30.08 32.167v97.1h-76.85V164.437h76.85v253.77l105.14-122.715h89.06l-117.95 131.352 124.5 181.094zM1628.31 164.437h76.84v443.501h-76.84zM1855.27 471.82c1.39 27.799 8.14 47.755 20.26 59.868q18.165 18.17 57.18 18.169c15.09 0 28.35-1.886 39.77-5.659 11.41-3.773 21.39-11.021 29.93-21.743l57.19 40.805c-12.51 18.07-28.75 31.573-48.7 40.508-19.96 8.936-47.21 13.403-81.76 13.403-51.43 0-89.8-13.502-115.12-40.507q-37.98-40.508-37.98-122.417 0-167.691 150.12-167.691c44.48 0 78.38 12.56 101.72 37.678 23.33 25.119 34.99 61.705 34.99 109.759v37.827zm131.35-53.018q0-71.186-62.25-71.186c-13.7 0-24.92 2.333-33.65 6.999q-13.11 7-21 20.85-7.905 13.85-12.36 43.337zm384.23 100.078q0 30.977-15.63 53.018c-10.43 14.694-25.22 25.913-44.38 33.657-19.17 7.744-41.06 11.616-65.68 11.616q-97.995 0-133.44-54.506l57.19-40.21c9.33 12.708 20.1 21.197 32.32 25.466 12.21 4.269 25.26 6.404 39.16 6.404q54.81 0 54.81-31.87c0-9.333-5.16-16.531-15.49-21.595-10.33-5.063-26.51-10.275-48.55-15.637q-62.25-13.701-87.57-38.72-25.32-25.02-25.32-64.932c0-27.601 10.58-50.337 31.73-68.208 21.14-17.871 52.27-26.807 93.37-26.807 28 0 52.67 4.468 74.02 13.404 21.34 8.935 37.78 22.338 49.29 40.21l-57.48 40.805q-20.55-31.572-67.02-31.572c-15.89 0-27.9 2.73-36.04 8.191q-12.21 8.19-12.21 20.998c0 8.142 3.67 14.645 11.02 19.51s21.84 9.978 43.49 15.339c35.54 8.737 60.91 17.424 76.1 26.062s26.7 19.36 34.55 32.168q11.76 19.212 11.76 47.209m305.6 0c0 20.652-5.21 38.324-15.64 53.018-10.42 14.694-25.22 25.913-44.38 33.657s-41.05 11.616-65.68 11.616c-65.32 0-109.8-18.168-133.43-54.506l57.18-40.21c9.34 12.708 20.11 21.197 32.32 25.466s25.27 6.404 39.17 6.404c36.54 0 54.8-10.624 54.8-31.87q0-14-15.48-21.595c-10.33-5.063-26.51-10.275-48.55-15.637-41.51-9.134-70.69-22.041-87.57-38.72q-25.32-25.02-25.32-64.932c0-27.601 10.57-50.337 31.72-68.208s52.27-26.807 93.38-26.807q42 0 74.01 13.404c21.35 8.935 37.78 22.338 49.3 40.21l-57.49 40.805c-13.7-21.048-36.04-31.572-67.01-31.572-15.89 0-27.9 2.73-36.04 8.191-8.15 5.46-12.22 12.46-12.22 20.998 0 8.142 3.68 14.645 11.02 19.51 7.35 4.865 21.85 9.978 43.49 15.339 35.54 8.737 60.91 17.424 76.1 26.062s26.71 19.36 34.55 32.168c7.85 12.808 11.77 28.544 11.77 47.209" transform="scale(5.55556)"/></g></svg>

<?xml version="1.0" encoding="UTF-8" standalone="no"?>
<!DOCTYPE svg PUBLIC "-//W3C//DTD SVG 1.1//EN" "http://www.w3.org/Graphics/SVG/1.1/DTD/svg11.dtd">
<svg width="100%" height="100%" viewBox="0 0 23223 5556" version="1.1" xmlns="http://www.w3.org/2000/svg" xmlns:xlink="http://www.w3.org/1999/xlink" xml:space="preserve" xmlns:serif="http://www.serif.com/" style="fill-rule:evenodd;clip-rule:evenodd;stroke-linejoin:round;stroke-miterlimit:2;">
    <g transform="matrix(5.55556,0,0,5.55556,0,0)" fill="#fff">
        <g id="Layer-1">
            <path d="M2759.26,702.508L3957.62,701.481L3957.62,799.537L2759.26,799.537L2759.26,702.508Z" style="fill:rgb(237,28,36);"/>
            <path d="M3097.46,426.251C3097.46,477.467 3090.38,518.643 3076.22,549.78C3062.07,580.916 3040.72,603.564 3012.18,617.725C2983.67,631.864 2943.55,638.929 2891.84,638.919L2761.93,638.919L2761.93,213.629L2890.57,213.629C2940.84,213.629 2980.81,220.905 3010.46,235.457C3040.12,250.009 3062.03,272.699 3076.19,303.526C3090.37,334.353 3097.46,375.261 3097.46,426.251ZM3007.88,425.647C3007.88,388.519 3004.26,361.018 2997.03,343.145C2990.34,325.848 2976.98,311.954 2959.94,304.578C2942.49,296.791 2916.66,292.903 2882.45,292.913L2849.05,292.913L2849.05,559.603L2882.29,559.603C2916.55,559.603 2942.36,555.664 2959.71,547.784C2977.05,539.905 2989.42,526.74 2996.79,508.289C3004.19,489.869 3007.89,462.322 3007.88,425.647Z"/>
            <path d="M3146.74,638.872L3287.78,213.629L3400.75,213.629L3542.05,638.872L3453.05,638.872L3424.74,552.534L3260.64,552.534L3232.98,638.872L3146.74,638.872ZM3285.25,476.652L3400.08,476.652L3342.81,300.896L3285.25,476.652Z"/>
            <path d="M3957.62,426.251C3957.62,500.198 3941.98,555.607 3910.68,592.477C3879.38,629.348 3833.88,647.783 3774.17,647.783C3711.14,647.783 3664.81,628.378 3635.18,589.569C3605.54,550.759 3590.72,496.32 3590.7,426.251C3590.7,355.799 3605.52,301.262 3635.18,262.638C3664.83,224.014 3711.16,204.692 3774.17,204.672C3837.57,204.672 3884,223.978 3913.45,262.592C3942.91,301.205 3957.63,355.758 3957.62,426.251ZM3868.04,426.251C3868.04,375.859 3860.91,339.143 3846.65,316.103C3832.4,293.063 3808.23,281.543 3774.17,281.543C3740.07,281.543 3715.9,293.063 3701.67,316.103C3687.43,339.143 3680.3,375.859 3680.28,426.251C3680.28,476.652 3687.51,513.373 3701.98,536.414C3716.44,559.454 3740.51,570.974 3774.17,570.974C3808.26,570.974 3832.43,559.454 3846.65,536.414C3860.88,513.373 3868.01,476.652 3868.04,426.251Z"/>
            <g>
                <path d="M529.534,488.5C529.534,529.802 515.336,560.034 486.941,579.195C458.546,598.357 419.13,607.938 368.694,607.938L213.811,607.938L213.811,195.712L359.461,195.712C412.28,195.712 450.107,203.406 472.942,218.795C495.777,234.184 507.195,258.558 507.195,291.918C507.195,317.533 500.99,338.283 488.579,354.169C476.169,370.054 456.759,380.677 430.349,386.039C464.9,390.804 490.069,401.726 505.855,418.802C521.641,435.879 529.534,459.112 529.534,488.5ZM422.307,310.384C422.307,294.698 416.549,283.826 405.032,277.77C393.515,271.713 375.644,268.685 351.419,268.685L297.805,268.685L297.805,357.147L349.036,357.147C373.857,357.147 392.274,353.672 404.287,346.722C416.301,339.772 422.307,327.66 422.307,310.384ZM443.753,481.053C443.753,462.587 437.498,449.531 424.988,441.886C412.478,434.241 389.047,430.419 354.695,430.419L297.805,430.419L297.805,533.475L340.398,533.475C373.162,533.475 395.749,531.887 408.159,528.71C420.57,525.532 429.605,520.171 435.264,512.626C440.923,505.08 443.753,494.556 443.753,481.053Z"/>
                <path d="M783.303,607.938L783.303,575.472C752.923,603.272 720.357,617.171 685.608,617.171C651.057,617.171 624.946,608.087 607.273,589.918C589.601,571.749 580.764,548.467 580.764,520.072C580.764,497.832 585.282,479.465 594.317,464.969C603.351,450.474 616.755,439.106 634.527,430.865C652.298,422.625 677.864,416.817 711.223,413.441L777.049,407.186L777.049,393.187C777.049,375.713 771.787,363.749 761.262,357.296C750.738,350.843 735.349,347.616 715.095,347.616C698.416,347.616 684.069,350.396 672.056,355.956C660.043,361.516 651.157,369.458 645.398,379.784L585.53,341.361C596.054,323.688 612.535,310.136 634.973,300.704C657.412,291.272 684.516,286.556 716.287,286.556C764.936,286.556 800.033,295.045 821.577,312.023C843.122,329 853.894,356.849 853.894,395.57L853.894,607.938L783.303,607.938ZM777.049,462.884L738.03,466.459C710.429,468.841 690.523,474.103 678.311,482.245C666.099,490.386 659.993,502.598 659.993,518.88C659.993,533.177 663.964,542.957 671.907,548.219C679.85,553.481 690.374,556.112 703.479,556.112C712.812,556.112 724.18,553.183 737.583,547.325C750.987,541.468 764.142,533.177 777.049,522.455L777.049,462.884Z"/>
                <path d="M1139.53,607.938L1139.53,435.78C1139.53,403.215 1136.61,381.472 1130.75,370.55C1124.89,359.629 1113.82,354.169 1097.54,354.169C1074.7,354.169 1047.2,369.26 1015.03,399.442L1015.03,607.938L938.186,607.938L938.186,295.492L1015.03,295.492L1015.03,336C1031.31,319.717 1048.69,307.406 1067.16,299.066C1085.62,290.726 1103.69,286.556 1121.36,286.556C1153.33,286.556 1177.16,295.293 1192.85,312.767C1208.54,330.241 1216.38,359.133 1216.38,399.442L1216.38,607.938L1139.53,607.938Z"/>
                <path d="M1491,607.938L1407.6,478.671L1377.52,510.838L1377.52,607.938L1300.67,607.938L1300.67,164.437L1377.52,164.437L1377.52,418.207L1482.66,295.492L1571.72,295.492L1453.77,426.844L1578.27,607.938L1491,607.938Z"/>
                <rect x="1628.31" y="164.437" width="76.84" height="443.501"/>
                <path d="M1855.27,471.82C1856.66,499.619 1863.41,519.575 1875.53,531.688C1887.64,543.801 1906.7,549.857 1932.71,549.857C1947.8,549.857 1961.06,547.971 1972.48,544.198C1983.89,540.425 1993.87,533.177 2002.41,522.455L2059.6,563.26C2047.09,581.33 2030.85,594.833 2010.9,603.768C1990.94,612.704 1963.69,617.171 1929.14,617.171C1877.71,617.171 1839.34,603.669 1814.02,576.664C1788.7,549.658 1776.04,508.853 1776.04,454.247C1776.04,342.453 1826.08,286.556 1926.16,286.556C1970.64,286.556 2004.54,299.116 2027.88,324.234C2051.21,349.353 2062.87,385.939 2062.87,433.993L2062.87,471.82L1855.27,471.82ZM1986.62,418.802C1986.62,371.345 1965.87,347.616 1924.37,347.616C1910.67,347.616 1899.45,349.949 1890.72,354.615C1881.98,359.282 1874.98,366.232 1869.72,375.465C1864.45,384.698 1860.33,399.144 1857.36,418.802L1986.62,418.802Z"/>
                <path d="M2370.85,518.88C2370.85,539.532 2365.64,557.204 2355.22,571.898C2344.79,586.592 2330,597.811 2310.84,605.555C2291.67,613.299 2269.78,617.171 2245.16,617.171C2179.83,617.171 2135.35,599.003 2111.72,562.665L2168.91,522.455C2178.24,535.163 2189.01,543.652 2201.23,547.921C2213.44,552.19 2226.49,554.325 2240.39,554.325C2276.93,554.325 2295.2,543.701 2295.2,522.455C2295.2,513.122 2290.04,505.924 2279.71,500.86C2269.38,495.797 2253.2,490.585 2231.16,485.223C2189.66,476.089 2160.47,463.182 2143.59,446.503C2126.71,429.823 2118.27,408.179 2118.27,381.571C2118.27,353.97 2128.85,331.234 2150,313.363C2171.14,295.492 2202.27,286.556 2243.37,286.556C2271.37,286.556 2296.04,291.024 2317.39,299.96C2338.73,308.895 2355.17,322.298 2366.68,340.17L2309.2,380.975C2295.5,359.927 2273.16,349.403 2242.18,349.403C2226.29,349.403 2214.28,352.133 2206.14,357.594C2198,363.054 2193.93,370.054 2193.93,378.592C2193.93,386.734 2197.6,393.237 2204.95,398.102C2212.3,402.967 2226.79,408.08 2248.44,413.441C2283.98,422.178 2309.35,430.865 2324.54,439.503C2339.73,448.141 2351.24,458.863 2359.09,471.671C2366.93,484.479 2370.85,500.215 2370.85,518.88Z"/>
                <path d="M2676.45,518.88C2676.45,539.532 2671.24,557.204 2660.81,571.898C2650.39,586.592 2635.59,597.811 2616.43,605.555C2597.27,613.299 2575.38,617.171 2550.75,617.171C2485.43,617.171 2440.95,599.003 2417.32,562.665L2474.5,522.455C2483.84,535.163 2494.61,543.652 2506.82,547.921C2519.03,552.19 2532.09,554.325 2545.99,554.325C2582.53,554.325 2600.79,543.701 2600.79,522.455C2600.79,513.122 2595.63,505.924 2585.31,500.86C2574.98,495.797 2558.8,490.585 2536.76,485.223C2495.25,476.089 2466.07,463.182 2449.19,446.503C2432.31,429.823 2423.87,408.179 2423.87,381.571C2423.87,353.97 2434.44,331.234 2455.59,313.363C2476.74,295.492 2507.86,286.556 2548.97,286.556C2576.97,286.556 2601.64,291.024 2622.98,299.96C2644.33,308.895 2660.76,322.298 2672.28,340.17L2614.79,380.975C2601.09,359.927 2578.75,349.403 2547.78,349.403C2531.89,349.403 2519.88,352.133 2511.74,357.594C2503.59,363.054 2499.52,370.054 2499.52,378.592C2499.52,386.734 2503.2,393.237 2510.54,398.102C2517.89,402.967 2532.39,408.08 2554.03,413.441C2589.57,422.178 2614.94,430.865 2630.13,439.503C2645.32,448.141 2656.84,458.863 2664.68,471.671C2672.53,484.479 2676.45,500.215 2676.45,518.88Z"/>
            </g>
        </g>
    </g>
</svg>
